X:1
T:O rest in the Lord
T:O rest in the Lord
T:Mendelssohn
C:Mwendelssohn
%%score 1 2 3
L:1/8
M:4/4
K:Eb
V:1 treble nm="Flute" snm="Fl."
V:2 treble transpose=-2 nm="B♭ Clarinet" snm="B♭ Cl."
V:3 treble transpose=-2 nm="B♭ Clarinet" snm="B♭ Cl."
V:1
 z!ppp! GBG B2 FA | GBGG A2 Bc | dBef =e2 fe | z A z A z A z A | z A2 G FEFD | EB e2 dede | %6
 eBef eg^f=a | gB e4 d2 | dBef eg^f=a | gfee eBBA | GB e2 z fed | c=AB=A =A4- | =Aedc d2 cB | %13
 =A D2 G E4 | z d=AB ^FG=AB | =A2 D=E FGAB | ^F2 GF G z E z | BGDE G z ^F z | z2 z E G z ^F z | %19
 E z z2 E3 E | z B_dE- E A2 A | FAGF =E2 FE | =ECFA FBAG | GEA_B- _B4 | E2 GF- F E2 F | %25
 EEDE !>!A2 GF | G E2 F- FE D2 | GA_d!p!E G2 AF | B2 z!pp! e g2 af | b3 B e4- | e4 F2 c2 | %31
"^rall." B2 B2 F3 G | E2 Be- egbe' | (3d'/4e'/4f'/4 e'7/2- e'4 |] %34
V:2
[K:F] z3!mp! F A2 BG | F3 F ddef | c3 c c2 BA | B d2 d!<(! c2 f2!<)! | %4
"_dim." f2 ed"_cresc." cA"_dim." B>A | A2 z d cA B>A | A2 z!<(! A Afed!<)! | c c2 d!>(! cAGB!>)! | %8
 B2 A2- A!>(!fed!>)! | c c2 d A3"_dim." G | F2 z A Gc=Bc | f2 e2- eedc | =B2 z B cA^GA | %13
 d2 c2- cc=BA | ^G3 A =B!<(!cdf!<)! |"_dim." e2 ^GA =B!<(!cdf!<)! |!>(! e2 eE c2 d=B!>)! | %17
 !>!e3!mp! A cc =B>A | A2 z!p! A cc =B>A | A3 z F,2 G,B, | F,A,CA, B,2 CD | E3 _E D4- | %22
 D2 z2 C2 F2 | _E2 D2 =E2 FG | C2 A,B, C2 CB, | A,A,B,A, !>!E2 F^C | D2 A,B, C2 CB, | A,A, C4 B,2 | %28
 A,C _E4 D_D | z F _E2 cB_AG | G4 z4 | A4!>(! B4!>)! |"_dim." ACFA c2 c2 |!ppp! c8 |] %34
V:3
[K:F]!pp! F4 F4 | F8 | F3 _E D4 | G2 F2 E2 D2 | C4 z2 C2 | F2 z2 z2 C2 | F2 z ^C D2 E2 | %7
 A3 B, C2 C2 | F3 E D2 E2 | AEFB, C4 | F2 z2 z edc | =B^GA=G F2 f2 | z2 G2 CC=B,A, | ^G,2 A,F D4 | %14
 E4 E4 | E4 DC=B,A, | EDC=B, A, z F, z | C2 z D E z E z | FCFB, C z C z | F z2 F A2 BG | %20
 F3 F d!<(!def!<)! |!>(! c3 c c2 BA!>)! | A2 B"_cresc."B _e2 dc |!<(! c2 d2 !>!g2 fe!<)! | %24
!>(! fAcB A2 Gc!>)! | c4 !>!g2 fe | fAcB A3 G | F2 _E4 D_D | F4- F4 | F2 A,2 B,4 | =B,4 z4 | %31
 C4- C2 C2 | F4 F2 F2 | A4 F4 |] %34

